suite-common/icons/assets/icons/threeUsers.svg

<svg xmlns="http://www.w3.org/2000/svg" viewBox="0 0 12 12">
  <path fill-rule="evenodd" d="M2.532 1.961a1.95 1.95 0 0 0-1.133.578 1.9 1.9 0 0 0-.512.852c-.05.166-.054.205-.055.549-.002.355.001.377.055.54.083.246.171.427.301.618.063.092.11.178.105.192a.5.5 0 0 1-.14.097 3.4 3.4 0 0 0-.66.511c-.383.373-.512.625-.425.828.076.177.328.354.506.354.146 0 .212-.044.481-.321.314-.324.449-.428.751-.579.281-.139.472-.189.889-.231.162-.016.324-.039.359-.05.081-.027.193-.151.228-.251a.7.7 0 0 0-.025-.47c-.068-.145-.149-.197-.354-.223-.432-.054-.585-.116-.785-.316a.99.99 0 0 1 .374-1.642c.167-.061.469-.061.636 0 .159.058.287.142.408.27.119.126.176.234.264.5.05.152.082.215.138.271q.188.187.525.083c.137-.043.256-.142.296-.247.062-.165-.008-.514-.167-.83a2.02 2.02 0 0 0-1.357-1.056 2.7 2.7 0 0 0-.703-.027m6.421.001a2 2 0 0 0-.803.276 2.4 2.4 0 0 0-.675.673c-.183.308-.288.699-.246.918.022.121.15.243.306.291q.34.105.527-.082c.056-.056.088-.118.138-.271.092-.28.166-.41.312-.546a.97.97 0 0 1 1.023-.21.99.99 0 0 1 .336 1.641c-.193.189-.349.25-.774.303-.205.026-.286.078-.354.223a.7.7 0 0 0-.025.47c.035.1.147.224.228.251.035.011.195.034.356.05.367.037.541.076.766.172.343.148.476.243.822.587.175.175.348.33.384.345.209.087.518-.06.637-.304.106-.216.036-.392-.291-.735a3.7 3.7 0 0 0-.865-.681l-.075-.044.126-.182c.247-.357.352-.668.369-1.088a1.8 1.8 0 0 0-.099-.728 2.03 2.03 0 0 0-1.325-1.26c-.143-.042-.544-.098-.621-.088zM5.69 4.22c-.485.045-.979.288-1.361.669a2.32 2.32 0 0 0-.697 1.651c-.001.287.027.471.113.74.105.332.267.615.505.879.071.081.13.153.13.161a1 1 0 0 1-.171.117c-.51.305-.957.759-1.247 1.267-.237.415-.234.63.013.799.202.139.39.171.546.092.092-.046.106-.066.398-.528.278-.442.784-.83 1.311-1.004.263-.088.453-.109.874-.098.317.009.391.017.556.063.229.065.537.209.752.352.209.139.53.468.665.681.31.487.31.488.402.534.156.079.344.047.546-.092.247-.169.25-.384.013-.799a3.6 3.6 0 0 0-1.247-1.267.8.8 0 0 1-.171-.12c0-.009.049-.071.11-.137.308-.335.502-.713.602-1.175.05-.23.046-.68-.007-.917A2.4 2.4 0 0 0 7.319 4.6a2.7 2.7 0 0 0-.719-.327 3.2 3.2 0 0 0-.91-.053m.71 1.031c.21.063.38.168.561.348.142.143.187.203.264.361.106.216.135.35.135.609a1.24 1.24 0 0 1-.126.583 1.4 1.4 0 0 1-.894.741 1.4 1.4 0 0 1-.36.035 1 1 0 0 1-.39-.056 1.37 1.37 0 0 1-.824-.72 1.24 1.24 0 0 1-.125-.592c0-.401.114-.677.398-.96.222-.221.444-.342.701-.381.159-.024.532-.006.66.032"/>
</svg>

<svg xmlns="http://www.w3.org/2000/svg" viewBox="0 0 12 12"><path d="M2.532 1.961 C 2.080 2.032,1.724 2.214,1.399 2.539 C 1.142 2.797,0.993 3.046,0.887 3.391 C 0.837 3.557,0.833 3.596,0.832 3.940 C 0.830 4.295,0.833 4.317,0.887 4.480 C 0.970 4.726,1.058 4.907,1.188 5.098 C 1.251 5.190,1.298 5.276,1.293 5.290 C 1.288 5.304,1.225 5.347,1.153 5.387 C 0.951 5.501,0.708 5.688,0.493 5.898 C 0.110 6.271,-0.019 6.523,0.068 6.726 C 0.144 6.903,0.396 7.080,0.574 7.080 C 0.720 7.080,0.786 7.036,1.055 6.759 C 1.369 6.435,1.504 6.331,1.806 6.180 C 2.087 6.041,2.278 5.991,2.695 5.949 C 2.857 5.933,3.019 5.910,3.054 5.899 C 3.135 5.872,3.247 5.748,3.282 5.648 C 3.328 5.514,3.317 5.307,3.257 5.178 C 3.189 5.033,3.108 4.981,2.903 4.955 C 2.471 4.901,2.318 4.839,2.118 4.639 C 1.596 4.117,1.793 3.251,2.492 2.997 C 2.659 2.936,2.961 2.936,3.128 2.997 C 3.287 3.055,3.415 3.139,3.536 3.267 C 3.655 3.393,3.712 3.501,3.800 3.767 C 3.850 3.919,3.882 3.982,3.938 4.038 C 4.063 4.163,4.238 4.190,4.463 4.121 C 4.600 4.078,4.719 3.979,4.759 3.874 C 4.821 3.709,4.751 3.360,4.592 3.044 C 4.324 2.510,3.812 2.112,3.235 1.988 C 3.056 1.950,2.691 1.936,2.532 1.961 M8.953 1.962 C 8.681 1.991,8.431 2.077,8.150 2.238 C 7.934 2.362,7.606 2.689,7.475 2.911 C 7.292 3.219,7.187 3.610,7.229 3.829 C 7.251 3.950,7.379 4.072,7.535 4.120 C 7.762 4.190,7.937 4.163,8.062 4.038 C 8.118 3.982,8.150 3.920,8.200 3.767 C 8.292 3.487,8.366 3.357,8.512 3.221 C 8.798 2.954,9.176 2.876,9.535 3.011 C 10.218 3.268,10.396 4.136,9.871 4.652 C 9.678 4.841,9.522 4.902,9.097 4.955 C 8.892 4.981,8.811 5.033,8.743 5.178 C 8.683 5.307,8.672 5.514,8.718 5.648 C 8.753 5.748,8.865 5.872,8.946 5.899 C 8.981 5.910,9.141 5.933,9.302 5.949 C 9.669 5.986,9.843 6.025,10.068 6.121 C 10.411 6.269,10.544 6.364,10.890 6.708 C 11.065 6.883,11.238 7.038,11.274 7.053 C 11.483 7.140,11.792 6.993,11.911 6.749 C 12.017 6.533,11.947 6.357,11.620 6.014 C 11.353 5.733,11.108 5.541,10.755 5.333 L 10.680 5.289 10.806 5.107 C 11.053 4.750,11.158 4.439,11.175 4.019 C 11.186 3.730,11.160 3.540,11.076 3.291 C 10.877 2.702,10.355 2.206,9.751 2.031 C 9.608 1.989,9.207 1.933,9.130 1.943 C 9.119 1.944,9.039 1.953,8.953 1.962 M5.690 4.220 C 5.205 4.265,4.711 4.508,4.329 4.889 C 3.877 5.342,3.633 5.920,3.632 6.540 C 3.631 6.827,3.659 7.011,3.745 7.280 C 3.850 7.612,4.012 7.895,4.250 8.159 C 4.321 8.240,4.380 8.312,4.380 8.320 C 4.380 8.328,4.303 8.381,4.209 8.437 C 3.699 8.742,3.252 9.196,2.962 9.704 C 2.725 10.119,2.728 10.334,2.975 10.503 C 3.177 10.642,3.365 10.674,3.521 10.595 C 3.613 10.549,3.627 10.529,3.919 10.067 C 4.197 9.625,4.703 9.237,5.230 9.063 C 5.493 8.975,5.683 8.954,6.104 8.965 C 6.421 8.974,6.495 8.982,6.660 9.028 C 6.889 9.093,7.197 9.237,7.412 9.380 C 7.621 9.519,7.942 9.848,8.077 10.061 C 8.387 10.548,8.387 10.549,8.479 10.595 C 8.635 10.674,8.823 10.642,9.025 10.503 C 9.272 10.334,9.275 10.119,9.038 9.704 C 8.748 9.196,8.301 8.742,7.791 8.437 C 7.697 8.381,7.620 8.327,7.620 8.317 C 7.620 8.308,7.669 8.246,7.730 8.180 C 8.038 7.845,8.232 7.467,8.332 7.005 C 8.382 6.775,8.378 6.325,8.325 6.088 C 8.181 5.459,7.840 4.953,7.319 4.600 C 7.133 4.473,6.814 4.328,6.600 4.273 C 6.380 4.217,5.981 4.193,5.690 4.220 M6.400 5.251 C 6.610 5.314,6.780 5.419,6.961 5.599 C 7.103 5.742,7.148 5.802,7.225 5.960 C 7.331 6.176,7.360 6.310,7.360 6.569 C 7.359 6.801,7.321 6.980,7.234 7.152 C 7.044 7.530,6.739 7.782,6.340 7.893 C 6.248 7.918,6.143 7.928,5.980 7.928 C 5.783 7.927,5.727 7.919,5.590 7.872 C 5.212 7.743,4.947 7.512,4.766 7.152 C 4.678 6.978,4.641 6.801,4.641 6.560 C 4.641 6.159,4.755 5.883,5.039 5.600 C 5.261 5.379,5.483 5.258,5.740 5.219 C 5.899 5.195,6.272 5.213,6.400 5.251 " stroke="none" fill-rule="evenodd" fill="black"></path></svg>
